svgs/sharp-regular/windsock.svg

<svg xmlns="http://www.w3.org/2000/svg" viewBox="0 0 512 512"><!--! Font Awesome Pro 6.6.0 by @fontawesome - https://fontawesome.com License - https://fontawesome.com/license (Commercial License) Copyright 2024 Fonticons, Inc. --><path d="M48 0l0 24 0 72 80 0 0-48 48 10 336 70 0 160L176 358l-48 10 0-48-80 0 0 168 0 24L0 512l0-24L0 296 0 120 0 24 0 0 48 0zm0 144l0 128 80 0 0-128-80 0zm128-37L176 309l64-13.3 0-175.3L176 107zm112 23.3l0 155.3L368 269 368 147l-80-16.7zM416 157L416 259l48-10 0-81.9-48-10z"/></svg>

<svg xmlns="http://www.w3.org/2000/svg" viewBox="0 0 512 512"><!--! Font Awesome Pro 6.4.2 by @fontawesome - https://fontawesome.com License - https://fontawesome.com/license (Commercial License) Copyright 2023 Fonticons, Inc. --><path d="M48 0V24 96h80V48l48 10 336 70V288L176 358l-48 10V320H48V488v24H0V488 296 120 24 0H48zm0 144V272h80V144H48zm128-37V309l64-13.3V120.4L176 107zm112 23.3V285.6L368 269V147l-80-16.7zM416 157V259l48-10V167l-48-10z"/></svg>
